X:218
T:The Dancing Bear
S:Bill Quern - NESI 2011
Z:robin.beech@mcgill.ca
R:reel
M:4/4
L:1/8
K:Em
EFGF EFGF | EFGA G2E2 | EFGF EFGF | EFGA G2E2 |
EFGF EFGF | EFGA B2e2 | B3c BAGF | GFE2 E4 ::
e2ef gfef | gfe2 e4 | [e2^c2]ef gfef | gfe2 e4 |
[e2c2] ef gfef | gfe2 e4 | B3c BcBA | GFE2 E4 :|
